img/model-right.svg

<svg width="437" height="4189" viewBox="0 0 437 4189" fill="none" xmlns="http://www.w3.org/2000/svg">
<g opacity="0.08">
<path d="M417.867 922.085C399.755 917.108 361.082 915.342 338.806 943.147C348.725 918.179 338.938 905.458 338.938 905.458C338.938 905.458 322.852 938.011 301.168 949.747C296.337 939.702 300.724 925.311 307.881 919.385C262.632 921.684 247.329 993.461 261.207 1014.98C275.084 1036.5 317.894 1053.78 342.904 1040.07C367.915 1026.36 381.978 1029.25 381.978 1029.25C381.978 1029.25 374.347 1016.37 351.234 1017.17C380.073 1014.66 394.741 998.667 396.527 990.31C379.578 998.679 361.415 991.854 362.81 991.219C411.06 969.346 417.867 922.085 417.867 922.085Z" stroke="#7D869D" stroke-width="10" stroke-miterlimit="10" stroke-linecap="round"/>
<path d="M351.12 963.916C336.253 971.047 263.133 1011.6 236.43 1031.92" stroke="#7D869D" stroke-width="10" stroke-miterlimit="10" stroke-linecap="round"/>
<path d="M317.583 981.854C322.093 974.304 324.527 964.524 324.559 958.893" stroke="#7D869D" stroke-width="10" stroke-miterlimit="10" stroke-linecap="round"/>
<path d="M314.705 983.562C316.597 982.955 332.42 990.162 340.804 986.306" stroke="#7D869D" stroke-width="10" stroke-miterlimit="10" stroke-linecap="round"/>
<path d="M280.727 975.903C278.448 983.429 278.131 994.266 282.736 1002.04C284.785 1005.49 293.696 1012 302.635 1012.87" stroke="#7D869D" stroke-width="10" stroke-miterlimit="10" stroke-linecap="round"/>
</g>
<path opacity="0.08" d="M241.079 2462.5L241.055 2462.5C217.909 2461.76 194.85 2459.32 172.065 2455.19C152.322 2452.16 132.352 2449.1 114.086 2448.43C95.7949 2447.77 79.4218 2449.52 66.8023 2455.96L241.079 2462.5ZM241.079 2462.5H241.103C261.12 2462.5 279.55 2459.39 294.357 2450.16C309.219 2440.89 320.244 2425.56 325.647 2401.52C332.104 2372.84 327.617 2349.37 311.968 2332.69C292.988 2312.17 261.121 2305.18 233.879 2303.29C226.492 2302.77 219.412 2302.64 212.975 2302.71L213.047 2301.72C217.393 2242.29 204.062 2199.53 173.517 2175.15C141.595 2149.66 100.806 2152.82 81.7256 2158.29L81.7186 2158.3L81.7116 2158.3C73.7324 2160.67 60.0907 2165.55 46.6702 2173.95C33.2569 2182.34 19.9536 2194.31 12.8345 2210.9L12.8335 2210.91C3.67218 2232.36 6.36321 2257.31 20.5092 2284.96L22.1317 2288.14L22.1333 2288.14C41.0246 2325.02 52.3206 2347.1 57.912 2369.25C63.487 2391.34 63.4044 2413.58 59.2693 2450.78L58.5115 2457.59L58.2028 2460.37L60.6863 2459.09L66.8005 2455.96L241.079 2462.5ZM207.565 2302.83C193.012 2303.28 182.76 2304.71 181.513 2304.89L180.023 2305.1L180.244 2306.59L181.327 2313.88L181.542 2315.33L182.996 2315.15C183.008 2315.15 183.034 2315.15 183.075 2315.14C184.581 2314.94 205.967 2312.08 231.336 2313.63C257.505 2315.24 287.412 2321.52 304.358 2339.75C317.336 2353.75 321.245 2373.66 315.522 2399.24C311.825 2415.72 305.238 2427.36 296.514 2435.45C287.784 2443.54 276.8 2448.19 264.128 2450.49C238.687 2455.12 206.831 2450.24 173.675 2445.15L173.298 2445.09C153.586 2442.06 134.368 2439.1 116.635 2438.25C99.7456 2437.43 84.0767 2438.51 70.5038 2443.3C73.8974 2408.92 73.2628 2386.74 67.3102 2364.52C61.2437 2341.88 49.6675 2319.26 31.4536 2283.68L31.408 2283.59L31.4067 2283.59L29.7849 2280.4L207.565 2302.83ZM207.565 2302.83L204.08 2302.57L202.589 2302.46L202.693 2300.97C206.631 2244.54 194.456 2205.14 167.048 2183.39L167.045 2183.38C138.514 2160.63 100.666 2163.63 84.6782 2168.36C77.3596 2170.55 64.8584 2174.99 52.6311 2182.54C40.3932 2190.1 28.5505 2200.7 22.3581 2215.16C14.5847 2233.41 17.0188 2255.29 29.7843 2280.4L207.565 2302.83Z" fill="#7D869D" stroke="#7D869D" stroke-width="3"/>
<path opacity="0.08" d="M11.7457 3624.18L13.3013 3621.83L18.8299 3613.45L11.7457 3624.18ZM11.7457 3624.18L10.664 3621.57M11.7457 3624.18L10.664 3621.57M10.664 3621.57L6.90524 3612.51C6.90433 3612.51 6.90341 3612.51 6.9025 3612.51C-3.14346 3588.75 3.92911 3564.13 28.7637 3533.5C14.9462 3516.82 7.33652 3496.53 7.09402 3475.58L7.09393 3475.57M10.664 3621.57L7.09393 3475.57M7.09393 3475.57V3475.57M7.09393 3475.57V3475.57M7.09393 3475.57C7.09393 3442.19 27.0432 3412.14 58.9241 3390.49C90.8133 3368.85 134.772 3355.5 183.22 3355.5C231.669 3355.5 275.666 3368.88 307.593 3390.56C339.511 3412.22 359.5 3442.29 359.5 3475.64C359.5 3508.98 339.511 3539.05 307.593 3560.72C275.666 3582.39 231.669 3595.77 183.22 3595.77C163.71 3595.77 149.134 3594.78 135.814 3591.94C122.597 3589.12 110.682 3584.49 96.4523 3577.31M7.09393 3475.57L96.4523 3577.31M96.4523 3577.31C81.0275 3578.6 64.4969 3583.32 50.3676 3589.88C36.0665 3596.53 24.4411 3604.97 18.8304 3613.45L96.4523 3577.31ZM99.1323 3564.65H99.4571L99.7528 3564.78L101.135 3565.41L101.167 3565.43L101.198 3565.44C115.029 3572.52 126.114 3576.95 138.413 3579.62C150.728 3582.29 164.33 3583.21 183.22 3583.21C228.274 3583.21 269.06 3571.06 298.539 3551.49C328.029 3531.91 346.056 3505.02 346.056 3475.5C346.056 3445.98 328.011 3419.08 298.511 3399.5C269.022 3379.93 228.235 3367.78 183.22 3367.78C138.206 3367.78 97.4389 3379.96 67.9691 3399.55C38.4913 3419.15 20.4658 3446.04 20.4609 3475.48C20.7893 3495.19 28.5239 3514.21 42.4145 3529.41L42.4211 3529.41L42.4276 3529.42L45.0385 3532.35L45.9142 3533.33L45.0532 3534.33L42.53 3537.25C42.5279 3537.25 42.5258 3537.25 42.5236 3537.26C22.3743 3561.1 14.1613 3579.83 16.2908 3596.5C25.6972 3587.75 38.6267 3580.45 52.4634 3575.05C67.3648 3569.24 83.4308 3565.57 97.4988 3564.65L97.5476 3564.65H97.5965H99.1323ZM154.808 3405.44L155.232 3404.08L156.614 3404.44L293.01 3439.54L294.538 3439.93L294.068 3441.43L291.223 3450.57L290.799 3451.93L289.417 3451.57L153.021 3416.47L151.493 3416.08L151.963 3414.58L154.808 3405.44ZM225.223 3468.37L225.685 3467.03L227.051 3467.42L281.662 3482.91L283.186 3483.34L282.671 3484.84L279.558 3493.9L279.097 3495.24L277.73 3494.86L223.12 3479.36L221.596 3478.93L222.111 3477.43L225.223 3468.37ZM85.847 3421.99L86.3887 3420.69L87.7198 3421.15L195.724 3458.34L197.235 3458.86L196.62 3460.33L192.92 3469.21L192.378 3470.51L191.047 3470.05L83.043 3432.86L81.5318 3432.34L82.1469 3430.87L85.847 3421.99ZM134.944 3482.95L135.529 3481.68L136.839 3482.18L248.293 3524.5L249.794 3525.07L249.124 3526.53L245.097 3535.29L244.511 3536.56L243.201 3536.07L131.747 3493.74L130.246 3493.17L130.917 3491.71L134.944 3482.95ZM122.836 3517.84L123.315 3516.51L124.674 3516.91L173.479 3531.38L175.001 3531.84L174.465 3533.33L171.227 3542.35L170.748 3543.68L169.389 3543.28L120.583 3528.8L119.062 3528.35L119.598 3526.86L122.836 3517.84Z" fill="#7D869D" stroke="#7D869D" stroke-width="3"/>
<g opacity="0.08">
<path d="M93.4014 55.9358C100.015 96.438 124.185 179.137 186.426 228.965C248.667 278.792 301.783 276.967 311.058 266.529C320.333 256.09 313.727 179.715 251.776 127.536C184.196 70.6263 93.4014 55.9358 93.4014 55.9358Z" stroke="#7D869D" stroke-width="10" stroke-miterlimit="10" stroke-linecap="round"/>
<path d="M104.496 65.7635C138.326 104.618 352.176 309.17 380.048 326.755" stroke="#7D869D" stroke-width="10" stroke-miterlimit="10" stroke-linecap="round"/>
<path d="M115.747 112.08L148.77 111.417L151.132 76.757" stroke="#7D869D" stroke-width="10" stroke-miterlimit="10" stroke-linecap="round"/>
<path d="M126.528 146.689L181.705 145.248L184.655 88.816" stroke="#7D869D" stroke-width="10" stroke-miterlimit="10" stroke-linecap="round"/>
<path d="M151.616 184.772L214.623 175.652L220.96 114.282" stroke="#7D869D" stroke-width="10" stroke-miterlimit="10" stroke-linecap="round"/>
<path d="M178.992 219.055L243.968 208.047L254.482 133.52" stroke="#7D869D" stroke-width="10" stroke-miterlimit="10" stroke-linecap="round"/>
<path d="M212.904 243.009L274.269 234.888L284.958 170.976" stroke="#7D869D" stroke-width="10" stroke-miterlimit="10" stroke-linecap="round"/>
<path d="M266.841 266.478L300.101 257.767L308.385 226.649" stroke="#7D869D" stroke-width="10" stroke-miterlimit="10" stroke-linecap="round"/>
</g>
<g opacity="0.08">
<path d="M356.323 3937.64C332.937 3936.19 285.269 3943.91 265.176 3983.56C270.907 3950.54 255.708 3937.51 255.708 3937.51C255.708 3937.51 244.385 3981.36 220.908 4001.23C212.443 3990.2 214.124 3971.51 221.347 3962.44C166.689 3976.81 166.344 4068.36 188.787 4091.09C211.229 4113.82 267.91 4123.97 294.944 4100.85C321.978 4077.72 339.885 4077.65 339.885 4077.65C339.885 4077.65 327.278 4063.88 299.262 4070.76C333.832 4060.33 347.654 4037.05 347.699 4026.39C329.144 4040.94 305.224 4037.25 306.765 4036.11C360.086 3997.08 356.323 3937.64 356.323 3937.64Z" stroke="#505666" stroke-width="10" stroke-miterlimit="10" stroke-linecap="round"/>
<path d="M285.515 4005.76C269.186 4018.27 190.273 4086.46 162.864 4118.1" stroke="#505666" stroke-width="10" stroke-miterlimit="10" stroke-linecap="round"/>
<path d="M249.153 4036.24C252.73 4025.86 253.203 4013.3 251.803 4006.42" stroke="#505666" stroke-width="10" stroke-miterlimit="10" stroke-linecap="round"/>
<path d="M246.075 4039.05C248.23 4037.83 269.39 4042.59 278.642 4035.74" stroke="#505666" stroke-width="10" stroke-miterlimit="10" stroke-linecap="round"/>
<path d="M202.633 4038.39C201.774 4048.16 204.156 4061.47 211.763 4069.78C215.148 4073.48 227.691 4079.15 238.826 4077.92" stroke="#505666" stroke-width="10" stroke-miterlimit="10" stroke-linecap="round"/>
</g>
<g opacity="0.08">
<path d="M373.358 1831.49C329.195 1842.17 177.255 1887.18 142.373 2045.09C294.65 2041.24 373.358 1831.49 373.358 1831.49Z" stroke="#505666" stroke-width="10" stroke-miterlimit="10" stroke-linecap="round"/>
<path d="M147.127 2040.7C147.127 2040.7 333.089 1852.49 364.314 1838.68" stroke="#505666" stroke-width="10" stroke-miterlimit="10" stroke-linecap="round"/>
<path d="M266.602 1923.95C267.256 1923.33 310.26 1910.91 310.26 1910.91" stroke="#505666" stroke-width="10" stroke-miterlimit="10" stroke-linecap="round"/>
<path d="M244.925 1943.99L316.161 1927.57" stroke="#505666" stroke-width="10" stroke-miterlimit="10" stroke-linecap="round"/>
<path d="M175.678 2013.14C177.074 2010.7 258.008 1993.63 258.008 1993.63" stroke="#505666" stroke-width="10" stroke-miterlimit="10" stroke-linecap="round"/>
</g>
</svg>

<svg width="437" height="4189" fill="none" xmlns="http://www.w3.org/2000/svg"><g opacity=".08" stroke="#7D869D" stroke-width="10" stroke-miterlimit="10" stroke-linecap="round"><path d="M417.867 922.085c-18.112-4.977-56.785-6.743-79.061 21.062 9.919-24.968.132-37.689.132-37.689s-16.086 32.553-37.77 44.289c-4.831-10.045-.444-24.436 6.713-30.362-45.249 2.299-60.552 74.076-46.674 95.595 13.877 21.52 56.687 38.8 81.697 25.09 25.011-13.71 39.074-10.82 39.074-10.82s-7.631-12.88-30.744-12.08c28.839-2.51 43.507-18.503 45.293-26.86-16.949 8.369-35.112 1.544-33.717.909 48.25-21.873 55.057-69.134 55.057-69.134zm-66.747 41.831c-14.867 7.131-87.987 47.684-114.69 68.004m81.153-50.066c4.51-7.55 6.944-17.33 6.976-22.961m-9.854 24.669c1.892-.607 17.715 6.6 26.099 2.744"/><path d="M280.727 975.903c-2.279 7.526-2.596 18.363 2.009 26.137 2.049 3.45 10.96 9.96 19.899 10.83"/></g><path opacity=".08" d="M241.079 2462.5h-.024a471.239 471.239 0 01-68.99-7.31c-19.743-3.03-39.713-6.09-57.979-6.76-18.291-.66-34.664 1.09-47.284 7.53l174.277 6.54zm0 0h.024c20.017 0 38.447-3.11 53.254-12.34 14.862-9.27 25.887-24.6 31.29-48.64 6.457-28.68 1.97-52.15-13.679-68.83-18.98-20.52-50.847-27.51-78.089-29.4-7.387-.52-14.467-.65-20.904-.58l.072-.99c4.346-59.43-8.985-102.19-39.53-126.57-31.922-25.49-72.711-22.33-91.791-16.86l-.007.01h-.007c-7.98 2.37-21.621 7.25-35.042 15.65-13.413 8.39-26.716 20.36-33.836 36.95v.01c-9.162 21.45-6.47 46.4 7.675 74.05l1.623 3.18h.001c18.892 36.88 30.188 58.96 35.779 81.11 5.575 22.09 5.492 44.33 1.357 81.53l-.758 6.81-.308 2.78 2.483-1.28 6.114-3.13 174.279 6.54zm-33.514-159.67c-14.553.45-24.805 1.88-26.052 2.06l-1.49.21.221 1.49 1.083 7.29.215 1.45 1.454-.18c.012 0 .038 0 .079-.01 1.506-.2 22.892-3.06 48.261-1.51 26.169 1.61 56.076 7.89 73.022 26.12 12.978 14 16.887 33.91 11.164 59.49-3.697 16.48-10.284 28.12-19.008 36.21-8.73 8.09-19.714 12.74-32.386 15.04-25.441 4.63-57.297-.25-90.453-5.34l-.377-.06c-19.712-3.03-38.93-5.99-56.663-6.84-16.89-.82-32.558.26-46.131 5.05 3.393-34.38 2.759-56.56-3.194-78.78-6.066-22.64-17.643-45.26-35.856-80.84l-.046-.09h-.001l-1.622-3.19 177.78 22.43zm0 0l-3.485-.26-1.491-.11.104-1.49c3.938-56.43-8.237-95.83-35.645-117.58l-.003-.01c-28.531-22.75-66.379-19.75-82.367-15.02-7.318 2.19-19.82 6.63-32.047 14.18-12.238 7.56-24.08 18.16-30.273 32.62-7.773 18.25-5.34 40.13 7.426 65.24l177.781 22.43zM11.746 3624.18l1.555-2.35 5.529-8.38-7.084 10.73zm0 0l-1.082-2.61m1.082 2.61l-1.082-2.61m0 0l-3.759-9.06h-.003c-10.045-23.76-2.973-48.38 21.862-79.01-13.818-16.68-21.427-36.97-21.67-57.92v-.01m3.57 146l-3.57-146m0 0v0m0 0v0m0 0c0-33.38 19.95-63.43 51.83-85.08 31.89-21.64 75.848-34.99 124.296-34.99 48.449 0 92.446 13.38 124.373 35.06 31.918 21.66 51.907 51.73 51.907 85.08 0 33.34-19.989 63.41-51.907 85.08-31.927 21.67-75.924 35.05-124.373 35.05-19.51 0-34.086-.99-47.406-3.83-13.217-2.82-25.132-7.45-39.362-14.63M7.094 3475.57l89.358 101.74m0 0c-15.424 1.29-31.955 6.01-46.084 12.57-14.302 6.65-25.927 15.09-31.538 23.57l77.622-36.14zm2.68-12.66h.325l.296.13 1.382.63.032.02.031.01c13.831 7.08 24.916 11.51 37.215 14.18 12.315 2.67 25.917 3.59 44.807 3.59 45.054 0 85.84-12.15 115.319-31.72 29.49-19.58 47.517-46.47 47.517-75.99 0-29.52-18.045-56.42-47.545-76-29.489-19.57-70.276-31.72-115.291-31.72-45.014 0-85.781 12.18-115.25 31.77-29.479 19.6-47.504 46.49-47.51 75.93.33 19.71 8.064 38.73 21.954 53.93h.007l.007.01 2.61 2.93.876.98-.86 1-2.524 2.92c-.002 0-.004 0-.006.01-20.15 23.84-28.363 42.57-26.233 59.24 9.406-8.75 22.336-16.05 36.172-21.45 14.902-5.81 30.968-9.48 45.036-10.4h1.633zm55.676-159.21l.424-1.36 1.382.36 136.396 35.1 1.528.39-.47 1.5-2.845 9.14-.424 1.36-1.382-.36-136.396-35.1-1.528-.39.47-1.5 2.845-9.14zm70.415 62.93l.462-1.34 1.366.39 54.611 15.49 1.524.43-.515 1.5-3.113 9.06-.461 1.34-1.367-.38-54.61-15.5-1.524-.43.515-1.5 3.112-9.06zm-139.376-46.38l.542-1.3 1.33.46 108.005 37.19 1.511.52-.615 1.47-3.7 8.88-.542 1.3-1.331-.46-108.004-37.19-1.511-.52.615-1.47 3.7-8.88zm49.097 60.96l.585-1.27 1.31.5 111.454 42.32 1.501.57-.67 1.46-4.027 8.76-.586 1.27-1.31-.49-111.454-42.33-1.501-.57.671-1.46 4.027-8.76zm-12.108 34.89l.479-1.33 1.359.4 48.805 14.47 1.522.46-.536 1.49-3.238 9.02-.479 1.33-1.359-.4-48.806-14.48-1.521-.45.536-1.49 3.238-9.02z" fill="#7D869D" stroke="#7D869D" stroke-width="3"/><g opacity=".08" stroke="#7D869D" stroke-width="10" stroke-miterlimit="10" stroke-linecap="round"><path d="M93.401 55.936c6.614 40.502 30.784 123.201 93.025 173.029 62.241 49.827 115.357 48.002 124.632 37.564 9.275-10.439 2.669-86.814-59.282-138.993-67.58-56.91-158.375-71.6-158.375-71.6zm11.095 9.827c33.83 38.855 247.68 243.407 275.552 260.992"/><path d="M115.747 112.08l33.023-.663 2.362-34.66m-24.604 69.932l55.177-1.441 2.95-56.432m-33.039 95.956l63.007-9.12 6.337-61.37m-41.968 104.773l64.976-11.008 10.514-74.527m-41.578 109.489l61.365-8.121 10.689-63.912m-18.117 95.502l33.26-8.711 8.284-31.118"/></g><g opacity=".08" stroke="#505666" stroke-width="10" stroke-miterlimit="10" stroke-linecap="round"><path d="M356.323 3937.64c-23.386-1.45-71.054 6.27-91.147 45.92 5.731-33.02-9.468-46.05-9.468-46.05s-11.323 43.85-34.8 63.72c-8.465-11.03-6.784-29.72.439-38.79-54.658 14.37-55.003 105.92-32.56 128.65 22.442 22.73 79.123 32.88 106.157 9.76 27.034-23.13 44.941-23.2 44.941-23.2s-12.607-13.77-40.623-6.89c34.57-10.43 48.392-33.71 48.437-44.37-18.555 14.55-42.475 10.86-40.934 9.72 53.321-39.03 49.558-98.47 49.558-98.47zm-70.808 68.12c-16.329 12.51-95.242 80.7-122.651 112.34m86.289-81.86c3.577-10.38 4.05-22.94 2.65-29.82m-5.728 32.63c2.155-1.22 23.315 3.54 32.567-3.31"/><path d="M202.633 4038.39c-.859 9.77 1.523 23.08 9.13 31.39 3.385 3.7 15.928 9.37 27.063 8.14"/></g><path d="M373.358 1831.49c-44.163 10.68-196.103 55.69-230.985 213.6 152.277-3.85 230.985-213.6 230.985-213.6zM147.127 2040.7s185.962-188.21 217.187-202.02m-97.712 85.27c.654-.62 43.658-13.04 43.658-13.04m-65.335 33.08l71.236-16.42m-140.483 85.57c1.396-2.44 82.33-19.51 82.33-19.51" opacity=".08" stroke="#505666" stroke-width="10" stroke-miterlimit="10" stroke-linecap="round"/></svg>
